paginas/static/paginas/imagens/ia/Rewind.svg

<svg width="110" height="20" viewBox="0 0 110 20" fill="none" xmlns="http://www.w3.org/2000/svg">
<path d="M55.4909 18.2792L51.004 12.0828C52.8449 11.2971 53.9226 9.83777 53.9226 7.6825C53.9226 4.4945 51.7224 2.78825 47.9731 2.78825H42.5625V18.2792H46.3791V12.9584H47.3445L50.757 18.2792H55.4909ZM50.1508 7.90701C50.1508 9.38876 49.2079 10.197 47.5466 10.197H46.3567V5.68439H47.5915C49.2528 5.68439 50.1508 6.47017 50.1508 7.90701Z" fill="#21232E"/>
<path d="M65.0274 17.269L64.6907 14.8667C63.4783 15.5852 62.2884 16.0342 61.0761 16.0342C59.5719 16.0342 58.5392 15.3831 58.3596 13.6319H65.005C65.0274 13.4523 65.0499 13.0931 65.0499 12.7564C65.0499 9.56837 63.5681 7.05388 60.1781 7.05388C57.1921 7.05388 54.992 9.2316 54.992 12.8237C54.992 16.7301 57.3493 18.5038 60.6495 18.5038C62.3782 18.5038 63.8375 18.0323 65.0274 17.269ZM60.0883 9.25406C61.121 9.25406 61.7047 10.1072 61.817 11.7685H58.3371C58.4494 10.0847 59.1229 9.25406 60.0883 9.25406Z" fill="#21232E"/>
<path d="M81.3068 7.27839H78.1637L76.7044 13.6768L75.1329 7.27839H72.0796L70.5305 13.6768L69.0263 7.12124L65.524 7.5478L68.5324 18.2792H71.7877L73.3817 11.993L74.9982 18.2792H78.2311L81.3068 7.27839Z" fill="#21232E"/>
<path d="M86.1699 4.02304C86.1699 2.9005 85.3392 2.15963 84.2391 2.15963C83.1615 2.15963 82.3083 2.9005 82.3083 4.02304C82.3083 5.12312 83.1615 5.84155 84.2391 5.84155C85.3392 5.84155 86.1699 5.12312 86.1699 4.02304ZM85.9454 18.2792V7.27839H82.5328V18.2792H85.9454Z" fill="#21232E"/>
<path d="M97.9053 18.2792V10.4664C97.9053 8.31112 96.8276 7.05388 94.7846 7.05388C93.3927 7.05388 92.3375 7.79476 91.3497 8.78259L91.1027 7.27839H88.1168V18.2792H91.5068V11.0501C92.113 10.4439 92.7192 10.0623 93.3702 10.0623C94.1785 10.0623 94.4928 10.6011 94.4928 11.3869V18.2792H97.9053Z" fill="#21232E"/>
<path d="M109.829 18.2792V2.06982L106.439 2.60864V7.57025C105.81 7.34574 105.114 7.18859 104.104 7.18859C101.679 7.18859 99.4568 8.89484 99.4568 13.0931C99.4568 16.7975 101.186 18.5038 103.431 18.5038C104.845 18.5038 105.855 17.6731 106.596 16.8424L106.821 18.2792H109.829ZM106.439 14.3728C105.855 15.0239 105.272 15.4954 104.553 15.4954C103.588 15.4954 102.869 14.732 102.869 12.8462C102.869 10.7358 103.722 9.86022 104.845 9.86022C105.563 9.86022 105.945 9.95003 106.439 10.1745V14.3728Z" fill="#21232E"/>
<mask id="path-2-inside-1_333_12452" fill="white">
<path fill-rule="evenodd" clip-rule="evenodd" d="M16.1336 8.83895L30.5808 0.196024C31.6085 -0.418825 32.8695 0.506435 32.5913 1.67131L32.1033 3.71515C31.1166 7.84696 31.1166 12.153 32.1033 16.2849L32.5913 18.3287C32.8695 19.4936 31.6085 20.4188 30.5808 19.804L16.1336 11.161C16.0498 11.1109 15.974 11.054 15.9062 10.9915C15.9714 12.7695 16.212 14.5427 16.628 16.2849L17.1161 18.3287C17.3942 19.4936 16.1333 20.4188 15.1055 19.804L0.658367 11.161C-0.219454 10.6359 -0.219456 9.3641 0.658365 8.83895L15.1055 0.196024C16.1333 -0.418825 17.3942 0.506436 17.1161 1.67131L16.628 3.71515C16.212 5.45733 15.9714 7.23048 15.9062 9.0085C15.974 8.94604 16.0498 8.88909 16.1336 8.83895Z"/>
</mask>
<path fill-rule="evenodd" clip-rule="evenodd" d="M16.1336 8.83895L30.5808 0.196024C31.6085 -0.418825 32.8695 0.506435 32.5913 1.67131L32.1033 3.71515C31.1166 7.84696 31.1166 12.153 32.1033 16.2849L32.5913 18.3287C32.8695 19.4936 31.6085 20.4188 30.5808 19.804L16.1336 11.161C16.0498 11.1109 15.974 11.054 15.9062 10.9915C15.9714 12.7695 16.212 14.5427 16.628 16.2849L17.1161 18.3287C17.3942 19.4936 16.1333 20.4188 15.1055 19.804L0.658367 11.161C-0.219454 10.6359 -0.219456 9.3641 0.658365 8.83895L15.1055 0.196024C16.1333 -0.418825 17.3942 0.506436 17.1161 1.67131L16.628 3.71515C16.212 5.45733 15.9714 7.23048 15.9062 9.0085C15.974 8.94604 16.0498 8.88909 16.1336 8.83895Z" fill="url(#paint0_linear_333_12452)"/>
<path fill-rule="evenodd" clip-rule="evenodd" d="M16.1336 8.83895L30.5808 0.196024C31.6085 -0.418825 32.8695 0.506435 32.5913 1.67131L32.1033 3.71515C31.1166 7.84696 31.1166 12.153 32.1033 16.2849L32.5913 18.3287C32.8695 19.4936 31.6085 20.4188 30.5808 19.804L16.1336 11.161C16.0498 11.1109 15.974 11.054 15.9062 10.9915C15.9714 12.7695 16.212 14.5427 16.628 16.2849L17.1161 18.3287C17.3942 19.4936 16.1333 20.4188 15.1055 19.804L0.658367 11.161C-0.219454 10.6359 -0.219456 9.3641 0.658365 8.83895L15.1055 0.196024C16.1333 -0.418825 17.3942 0.506436 17.1161 1.67131L16.628 3.71515C16.212 5.45733 15.9714 7.23048 15.9062 9.0085C15.974 8.94604 16.0498 8.88909 16.1336 8.83895Z" fill="url(#paint1_linear_333_12452)" fill-opacity="0.3" style="mix-blend-mode:overlay"/>
<path fill-rule="evenodd" clip-rule="evenodd" d="M16.1336 8.83895L30.5808 0.196024C31.6085 -0.418825 32.8695 0.506435 32.5913 1.67131L32.1033 3.71515C31.1166 7.84696 31.1166 12.153 32.1033 16.2849L32.5913 18.3287C32.8695 19.4936 31.6085 20.4188 30.5808 19.804L16.1336 11.161C16.0498 11.1109 15.974 11.054 15.9062 10.9915C15.9714 12.7695 16.212 14.5427 16.628 16.2849L17.1161 18.3287C17.3942 19.4936 16.1333 20.4188 15.1055 19.804L0.658367 11.161C-0.219454 10.6359 -0.219456 9.3641 0.658365 8.83895L15.1055 0.196024C16.1333 -0.418825 17.3942 0.506436 17.1161 1.67131L16.628 3.71515C16.212 5.45733 15.9714 7.23048 15.9062 9.0085C15.974 8.94604 16.0498 8.88909 16.1336 8.83895Z" fill="url(#paint2_linear_333_12452)" fill-opacity="0.2"/>
<path fill-rule="evenodd" clip-rule="evenodd" d="M16.1336 8.83895L30.5808 0.196024C31.6085 -0.418825 32.8695 0.506435 32.5913 1.67131L32.1033 3.71515C31.1166 7.84696 31.1166 12.153 32.1033 16.2849L32.5913 18.3287C32.8695 19.4936 31.6085 20.4188 30.5808 19.804L16.1336 11.161C16.0498 11.1109 15.974 11.054 15.9062 10.9915C15.9714 12.7695 16.212 14.5427 16.628 16.2849L17.1161 18.3287C17.3942 19.4936 16.1333 20.4188 15.1055 19.804L0.658367 11.161C-0.219454 10.6359 -0.219456 9.3641 0.658365 8.83895L15.1055 0.196024C16.1333 -0.418825 17.3942 0.506436 17.1161 1.67131L16.628 3.71515C16.212 5.45733 15.9714 7.23048 15.9062 9.0085C15.974 8.94604 16.0498 8.88909 16.1336 8.83895Z" fill="url(#paint3_linear_333_12452)" fill-opacity="0.4" style="mix-blend-mode:overlay"/>
<path d="M30.5808 0.196024L30.5295 0.110396V0.110396L30.5808 0.196024ZM16.1336 8.83895L16.0824 8.75332H16.0824L16.1336 8.83895ZM32.5913 1.67131L32.4943 1.64814V1.64814L32.5913 1.67131ZM32.1033 3.71515L32.2003 3.73832L32.1033 3.71515ZM32.1033 16.2849L32.2003 16.2617L32.1033 16.2849ZM32.5913 18.3287L32.4943 18.3519L32.5913 18.3287ZM30.5808 19.804L30.5295 19.8896L30.5808 19.804ZM16.1336 11.161L16.0824 11.2467H16.0824L16.1336 11.161ZM15.9062 10.9915L15.9738 10.9181L15.7977 10.7559L15.8065 10.9952L15.9062 10.9915ZM16.628 16.2849L16.531 16.308L16.628 16.2849ZM17.1161 18.3287L17.2131 18.3055L17.1161 18.3287ZM15.1055 19.804L15.1567 19.7183L15.1055 19.804ZM0.658367 11.161L0.709593 11.0754L0.658367 11.161ZM0.658365 8.83895L0.709591 8.92457L0.658365 8.83895ZM15.1055 0.196024L15.1567 0.281652L15.1055 0.196024ZM17.1161 1.67131L17.2131 1.69449L17.1161 1.67131ZM16.628 3.71515L16.531 3.69197L16.628 3.71515ZM15.9062 9.0085L15.8065 9.00484L15.7977 9.24407L15.9738 9.08189L15.9062 9.0085ZM30.5295 0.110396L16.0824 8.75332L16.1849 8.92457L30.632 0.281652L30.5295 0.110396ZM32.6884 1.69449C32.9871 0.4437 31.6331 -0.549798 30.5295 0.110396L30.632 0.281652C31.584 -0.287852 32.7519 0.569171 32.4943 1.64814L32.6884 1.69449ZM32.2003 3.73832L32.6884 1.69449L32.4943 1.64814L32.0062 3.69197L32.2003 3.73832ZM32.2003 16.2617C31.2173 12.1451 31.2173 7.8549 32.2003 3.73832L32.0062 3.69197C31.0159 7.83903 31.0159 12.161 32.0062 16.308L32.2003 16.2617ZM32.6884 18.3055L32.2003 16.2617L32.0062 16.308L32.4943 18.3519L32.6884 18.3055ZM30.5295 19.8896C31.6331 20.5498 32.9871 19.5563 32.6884 18.3055L32.4943 18.3519C32.7519 19.4308 31.584 20.2878 30.632 19.7183L30.5295 19.8896ZM16.0824 11.2467L30.5295 19.8896L30.632 19.7183L16.1849 11.0754L16.0824 11.2467ZM15.8386 11.0649C15.9114 11.132 15.9927 11.193 16.0824 11.2467L16.1849 11.0754C16.1069 11.0288 16.0365 10.9759 15.9738 10.9181L15.8386 11.0649ZM16.7251 16.2617C16.3106 14.5259 16.0708 12.7593 16.0059 10.9878L15.8065 10.9952C15.8719 12.7797 16.1134 14.5594 16.531 16.308L16.7251 16.2617ZM17.2131 18.3055L16.7251 16.2617L16.531 16.308L17.019 18.3519L17.2131 18.3055ZM15.0543 19.8896C16.1578 20.5498 17.5118 19.5563 17.2131 18.3055L17.019 18.3519C17.2767 19.4308 16.1087 20.2878 15.1567 19.7183L15.0543 19.8896ZM0.60714 11.2467L15.0543 19.8896L15.1567 19.7183L0.709593 11.0754L0.60714 11.2467ZM0.607139 8.75332C-0.335422 9.3172 -0.33542 10.6828 0.60714 11.2467L0.709593 11.0754C-0.103489 10.589 -0.10349 9.411 0.709591 8.92457L0.607139 8.75332ZM15.0543 0.110396L0.607139 8.75332L0.709591 8.92457L15.1567 0.281652L15.0543 0.110396ZM17.2131 1.69449C17.5118 0.4437 16.1578 -0.549798 15.0543 0.110396L15.1567 0.281652C16.1087 -0.287852 17.2767 0.569171 17.019 1.64814L17.2131 1.69449ZM16.7251 3.73832L17.2131 1.69449L17.019 1.64814L16.531 3.69197L16.7251 3.73832ZM16.0059 9.01215C16.0708 7.2407 16.3106 5.47408 16.7251 3.73832L16.531 3.69197C16.1134 5.44057 15.8719 7.22027 15.8065 9.00484L16.0059 9.01215ZM16.0824 8.75332C15.9927 8.80696 15.9114 8.868 15.8386 8.9351L15.9738 9.08189C16.0365 9.02408 16.1069 8.97123 16.1849 8.92457L16.0824 8.75332Z" fill="black" fill-opacity="0.12" mask="url(#path-2-inside-1_333_12452)"/>
<defs>
<linearGradient id="paint0_linear_333_12452" x1="20.5357" y1="-8.29268" x2="25.8177" y2="25.393" gradientUnits="userSpaceOnUse">
<stop stop-color="#A73EFF"/>
<stop offset="0.0666667" stop-color="#A63EFF"/>
<stop offset="0.133333" stop-color="#A33CFD"/>
<stop offset="0.2" stop-color="#9E3AFB"/>
<stop offset="0.266667" stop-color="#9636F8"/>
<stop offset="0.333333" stop-color="#8D32F4"/>
<stop offset="0.4" stop-color="#812CF0"/>
<stop offset="0.466667" stop-color="#7426EB"/>
<stop offset="0.533333" stop-color="#6720E6"/>
<stop offset="0.6" stop-color="#5B1AE0"/>
<stop offset="0.666667" stop-color="#4F15DC"/>
<stop offset="0.733333" stop-color="#4611D8"/>
<stop offset="0.8" stop-color="#3E0DD5"/>
<stop offset="0.866667" stop-color="#390BD3"/>
<stop offset="0.933333" stop-color="#3609D2"/>
<stop offset="1" stop-color="#3509D1"/>
</linearGradient>
<linearGradient id="paint1_linear_333_12452" x1="14.3364" y1="-5.53913e-08" x2="14.3364" y2="21.4634" gradientUnits="userSpaceOnUse">
<stop stop-color="white"/>
<stop offset="0.0666667" stop-color="#FDFDFD"/>
<stop offset="0.133333" stop-color="#F6F6F6"/>
<stop offset="0.2" stop-color="#EAEAEA"/>
<stop offset="0.266667" stop-color="#D9D9D9"/>
<stop offset="0.333333" stop-color="#C4C4C4"/>
<stop offset="0.4" stop-color="#AAAAAA"/>
<stop offset="0.466667" stop-color="#8E8E8E"/>
<stop offset="0.533333" stop-color="#717171"/>
<stop offset="0.6" stop-color="#555555"/>
<stop offset="0.666667" stop-color="#3B3B3B"/>
<stop offset="0.733333" stop-color="#262626"/>
<stop offset="0.8" stop-color="#151515"/>
<stop offset="0.866667" stop-color="#090909"/>
<stop offset="0.933333" stop-color="#020202"/>
<stop offset="1"/>
</linearGradient>
<linearGradient id="paint2_linear_333_12452" x1="16.3152" y1="0" x2="16.3152" y2="20" gradientUnits="userSpaceOnUse">
<stop stop-color="white"/>
<stop offset="0.0666667" stop-color="#FDFDFD" stop-opacity="0.991353"/>
<stop offset="0.133333" stop-color="#F6F6F6" stop-opacity="0.96449"/>
<stop offset="0.2" stop-color="#EAEAEA" stop-opacity="0.91834"/>
<stop offset="0.266667" stop-color="#D9D9D9" stop-opacity="0.852589"/>
<stop offset="0.333333" stop-color="#C4C4C4" stop-opacity="0.768225"/>
<stop offset="0.4" stop-color="#AAAAAA" stop-opacity="0.668116"/>
<stop offset="0.466667" stop-color="#8E8E8E" stop-opacity="0.557309"/>
<stop offset="0.533333" stop-color="#717171" stop-opacity="0.442691"/>
<stop offset="0.6" stop-color="#555555" stop-opacity="0.331884"/>
<stop offset="0.666667" stop-color="#3B3B3B" stop-opacity="0.231775"/>
<stop offset="0.733333" stop-color="#262626" stop-opacity="0.147411"/>
<stop offset="0.8" stop-color="#151515" stop-opacity="0.0816599"/>
<stop offset="0.866667" stop-color="#090909" stop-opacity="0.03551"/>
<stop offset="0.933333" stop-color="#020202" stop-opacity="0.01"/>
<stop offset="1" stop-opacity="0"/>
</linearGradient>
<linearGradient id="paint3_linear_333_12452" x1="16.3152" y1="0" x2="16.3152" y2="20" gradientUnits="userSpaceOnUse">
<stop offset="0.479167" stop-color="white" stop-opacity="0.17"/>
<stop offset="1" stop-color="white"/>
</linearGradient>
</defs>
</svg>

<svg width="110" height="20" fill="none" xmlns="http://www.w3.org/2000/svg"><path d="m55.49 18.28-4.486-6.197c1.84-.786 2.919-2.245 2.919-4.4 0-3.188-2.2-4.895-5.95-4.895h-5.41V18.28h3.816v-5.32h.965l3.413 5.32h4.734ZM50.15 7.906c0 1.482-.942 2.29-2.603 2.29h-1.19V5.684h1.235c1.66 0 2.559.786 2.559 2.223Z" fill="#21232E"/><path d="m65.027 17.269-.336-2.402c-1.213.718-2.403 1.167-3.615 1.167-1.504 0-2.537-.65-2.716-2.402h6.645c.022-.18.045-.539.045-.876 0-3.188-1.482-5.702-4.872-5.702-2.986 0-5.186 2.178-5.186 5.77 0 3.906 2.357 5.68 5.658 5.68 1.728 0 3.188-.472 4.377-1.235Zm-4.939-8.015c1.033 0 1.617.853 1.729 2.514h-3.48c.112-1.683.786-2.514 1.751-2.514ZM81.307 7.278h-3.143l-1.46 6.399-1.571-6.399H72.08l-1.55 6.399-1.504-6.556-3.502.427 3.008 10.731h3.256l1.594-6.286 1.616 6.286h3.233l3.076-11ZM86.17 4.023c0-1.122-.83-1.863-1.93-1.863-1.078 0-1.932.74-1.932 1.863 0 1.1.853 1.819 1.931 1.819 1.1 0 1.93-.719 1.93-1.819Zm-.225 14.256v-11h-3.412v11h3.412ZM97.905 18.28v-7.814c0-2.155-1.077-3.412-3.12-3.412-1.392 0-2.447.74-3.435 1.729l-.247-1.505h-2.986V18.28h3.39V11.05c.606-.606 1.212-.988 1.863-.988.808 0 1.123.54 1.123 1.325v6.892h3.412ZM109.829 18.28V2.07l-3.39.539V7.57c-.629-.224-1.325-.381-2.335-.381-2.425 0-4.647 1.706-4.647 5.904 0 3.704 1.729 5.41 3.974 5.41 1.414 0 2.424-.83 3.165-1.66l.225 1.436h3.008Zm-3.39-3.907c-.584.65-1.167 1.122-1.886 1.122-.965 0-1.684-.763-1.684-2.649 0-2.11.853-2.986 1.976-2.986.718 0 1.1.09 1.594.315v4.198Z" fill="#21232E"/><mask id="e" fill="#fff"><path fill-rule="evenodd" clip-rule="evenodd" d="M16.134 8.839 30.58.196c1.027-.615 2.289.31 2.01 1.475l-.488 2.044a27.058 27.058 0 0 0 0 12.57l.488 2.044c.279 1.165-.983 2.09-2.01 1.475l-14.447-8.643a1.378 1.378 0 0 1-.228-.17c.065 1.779.306 3.552.722 5.294l.488 2.044c.278 1.165-.983 2.09-2.01 1.475L.657 11.161a1.353 1.353 0 0 1 0-2.322L15.105.196c1.028-.615 2.29.31 2.011 1.475l-.488 2.044a27.06 27.06 0 0 0-.722 5.293c.068-.062.144-.119.228-.169Z"/></mask><path fill-rule="evenodd" clip-rule="evenodd" d="M16.134 8.839 30.58.196c1.027-.615 2.289.31 2.01 1.475l-.488 2.044a27.058 27.058 0 0 0 0 12.57l.488 2.044c.279 1.165-.983 2.09-2.01 1.475l-14.447-8.643a1.378 1.378 0 0 1-.228-.17c.065 1.779.306 3.552.722 5.294l.488 2.044c.278 1.165-.983 2.09-2.01 1.475L.657 11.161a1.353 1.353 0 0 1 0-2.322L15.105.196c1.028-.615 2.29.31 2.011 1.475l-.488 2.044a27.06 27.06 0 0 0-.722 5.293c.068-.062.144-.119.228-.169Z" fill="url(#a)"/><path fill-rule="evenodd" clip-rule="evenodd" d="M16.134 8.839 30.58.196c1.027-.615 2.289.31 2.01 1.475l-.488 2.044a27.058 27.058 0 0 0 0 12.57l.488 2.044c.279 1.165-.983 2.09-2.01 1.475l-14.447-8.643a1.378 1.378 0 0 1-.228-.17c.065 1.779.306 3.552.722 5.294l.488 2.044c.278 1.165-.983 2.09-2.01 1.475L.657 11.161a1.353 1.353 0 0 1 0-2.322L15.105.196c1.028-.615 2.29.31 2.011 1.475l-.488 2.044a27.06 27.06 0 0 0-.722 5.293c.068-.062.144-.119.228-.169Z" fill="url(#b)" fill-opacity=".3" style="mix-blend-mode:overlay"/><path fill-rule="evenodd" clip-rule="evenodd" d="M16.134 8.839 30.58.196c1.027-.615 2.289.31 2.01 1.475l-.488 2.044a27.058 27.058 0 0 0 0 12.57l.488 2.044c.279 1.165-.983 2.09-2.01 1.475l-14.447-8.643a1.378 1.378 0 0 1-.228-.17c.065 1.779.306 3.552.722 5.294l.488 2.044c.278 1.165-.983 2.09-2.01 1.475L.657 11.161a1.353 1.353 0 0 1 0-2.322L15.105.196c1.028-.615 2.29.31 2.011 1.475l-.488 2.044a27.06 27.06 0 0 0-.722 5.293c.068-.062.144-.119.228-.169Z" fill="url(#c)" fill-opacity=".2"/><path fill-rule="evenodd" clip-rule="evenodd" d="M16.134 8.839 30.58.196c1.027-.615 2.289.31 2.01 1.475l-.488 2.044a27.058 27.058 0 0 0 0 12.57l.488 2.044c.279 1.165-.983 2.09-2.01 1.475l-14.447-8.643a1.378 1.378 0 0 1-.228-.17c.065 1.779.306 3.552.722 5.294l.488 2.044c.278 1.165-.983 2.09-2.01 1.475L.657 11.161a1.353 1.353 0 0 1 0-2.322L15.105.196c1.028-.615 2.29.31 2.011 1.475l-.488 2.044a27.06 27.06 0 0 0-.722 5.293c.068-.062.144-.119.228-.169Z" fill="url(#d)" fill-opacity=".4" style="mix-blend-mode:overlay"/><path d="M30.58.196 30.53.11l.05.086ZM16.135 8.839l-.052-.086.052.086ZM32.59 1.671l-.097-.023.097.023Zm-.488 2.044.097.023-.097-.023Zm0 12.57.097-.023-.097.023Zm.488 2.044-.097.023.097-.023Zm-2.01 1.475-.052.086.052-.086Zm-14.447-8.643-.052.086.052-.086Zm-.228-.17.068-.073-.176-.162.008.24.1-.005Zm.722 5.294-.097.023.097-.023Zm.488 2.044.097-.024-.097.024Zm-2.01 1.475.05-.086-.05.086ZM.657 11.161l.052-.086-.052.086Zm0-2.322.052.086-.052-.086ZM15.105.196l.052.086-.052-.086Zm2.011 1.475.097.023-.097-.023Zm-.488 2.044-.097-.023.097.023Zm-.722 5.293-.1-.003-.008.24.176-.163-.068-.074ZM30.53.11 16.082 8.753l.103.172L30.632.282 30.529.11Zm2.16 1.584C32.986.444 31.632-.55 30.528.11l.103.172c.952-.57 2.12.287 1.862 1.366l.194.046ZM32.2 3.738l.488-2.044-.194-.046-.488 2.044.194.046Zm0 12.524a26.96 26.96 0 0 1 0-12.524l-.194-.046a27.159 27.159 0 0 0 0 12.616l.194-.046Zm.488 2.043-.488-2.043-.194.046.488 2.044.194-.047ZM30.53 19.89c1.104.66 2.458-.334 2.16-1.585l-.195.047c.258 1.079-.91 1.936-1.862 1.366l-.103.172Zm-14.447-8.643L30.53 19.89l.103-.172-14.447-8.643-.103.172Zm-.243-.182c.072.067.154.128.243.182l.103-.172a1.278 1.278 0 0 1-.211-.157l-.135.147Zm.886 5.197a26.954 26.954 0 0 1-.72-5.274l-.198.007c.065 1.785.306 3.564.724 5.313l.194-.046Zm.488 2.043-.488-2.043-.194.046.488 2.044.194-.047Zm-2.159 1.585c1.104.66 2.458-.334 2.16-1.585l-.195.047c.258 1.079-.91 1.936-1.862 1.366l-.103.172ZM.607 11.247l14.447 8.643.103-.172L.71 11.075l-.103.172Zm0-2.494a1.453 1.453 0 0 0 0 2.494l.103-.172a1.253 1.253 0 0 1 0-2.15l-.103-.172ZM15.054.11.607 8.753l.103.172L15.157.282 15.054.11Zm2.16 1.584C17.511.444 16.157-.55 15.053.11l.103.172c.952-.57 2.12.287 1.862 1.366l.194.046Zm-.489 2.044.488-2.044-.194-.046-.488 2.044.194.046Zm-.72 5.274c.066-1.771.306-3.538.72-5.274l-.194-.046a27.152 27.152 0 0 0-.724 5.313l.199.007Zm.077-.259a1.48 1.48 0 0 0-.243.182l.135.147a1.28 1.28 0 0 1 .21-.157l-.102-.172Z" fill="#000" fill-opacity=".12" mask="url(#e)"/><defs><linearGradient id="a" x1="20.536" y1="-8.293" x2="25.818" y2="25.393" gradientUnits="userSpaceOnUse"><stop stop-color="#A73EFF"/><stop offset=".067" stop-color="#A63EFF"/><stop offset=".133" stop-color="#A33CFD"/><stop offset=".2" stop-color="#9E3AFB"/><stop offset=".267" stop-color="#9636F8"/><stop offset=".333" stop-color="#8D32F4"/><stop offset=".4" stop-color="#812CF0"/><stop offset=".467" stop-color="#7426EB"/><stop offset=".533" stop-color="#6720E6"/><stop offset=".6" stop-color="#5B1AE0"/><stop offset=".667" stop-color="#4F15DC"/><stop offset=".733" stop-color="#4611D8"/><stop offset=".8" stop-color="#3E0DD5"/><stop offset=".867" stop-color="#390BD3"/><stop offset=".933" stop-color="#3609D2"/><stop offset="1" stop-color="#3509D1"/></linearGradient><linearGradient id="b" x1="14.336" y1="0" x2="14.336" y2="21.463" gradientUnits="userSpaceOnUse"><stop stop-color="#fff"/><stop offset=".067" stop-color="#FDFDFD"/><stop offset=".133" stop-color="#F6F6F6"/><stop offset=".2" stop-color="#EAEAEA"/><stop offset=".267" stop-color="#D9D9D9"/><stop offset=".333" stop-color="#C4C4C4"/><stop offset=".4" stop-color="#AAA"/><stop offset=".467" stop-color="#8E8E8E"/><stop offset=".533" stop-color="#717171"/><stop offset=".6" stop-color="#555"/><stop offset=".667" stop-color="#3B3B3B"/><stop offset=".733" stop-color="#262626"/><stop offset=".8" stop-color="#151515"/><stop offset=".867" stop-color="#090909"/><stop offset=".933" stop-color="#020202"/><stop offset="1"/></linearGradient><linearGradient id="c" x1="16.315" y1="0" x2="16.315" y2="20" gradientUnits="userSpaceOnUse"><stop stop-color="#fff"/><stop offset=".067" stop-color="#FDFDFD" stop-opacity=".991"/><stop offset=".133" stop-color="#F6F6F6" stop-opacity=".964"/><stop offset=".2" stop-color="#EAEAEA" stop-opacity=".918"/><stop offset=".267" stop-color="#D9D9D9" stop-opacity=".853"/><stop offset=".333" stop-color="#C4C4C4" stop-opacity=".768"/><stop offset=".4" stop-color="#AAA" stop-opacity=".668"/><stop offset=".467" stop-color="#8E8E8E" stop-opacity=".557"/><stop offset=".533" stop-color="#717171" stop-opacity=".443"/><stop offset=".6" stop-color="#555" stop-opacity=".332"/><stop offset=".667" stop-color="#3B3B3B" stop-opacity=".232"/><stop offset=".733" stop-color="#262626" stop-opacity=".147"/><stop offset=".8" stop-color="#151515" stop-opacity=".082"/><stop offset=".867" stop-color="#090909" stop-opacity=".036"/><stop offset=".933" stop-color="#020202" stop-opacity=".01"/><stop offset="1" stop-opacity="0"/></linearGradient><linearGradient id="d" x1="16.315" y1="0" x2="16.315" y2="20" gradientUnits="userSpaceOnUse"><stop offset=".479" stop-color="#fff" stop-opacity=".17"/><stop offset="1" stop-color="#fff"/></linearGradient></defs></svg>
